X:17
T:J'ai perdu mon cheval et ma voiture
R:Scottiche
A:Normandie
O:France
M:2/4
L:1/8
Q:1/4=110
K:C
Gc cc|B/2c/2d/2B/2 c2|Ge ee|1d/2e/2f/2d/2 ee:|2d/2e/2f/2d/2 e2|
|:eg d>e|fg c2|ce de|1f/2e/2dg2:|2g/2f/2e/2d/2c2:||
